X:1
T:Title
%%score { ( 1 3 5 ) | ( 2 4 ) }
L:1/8
M:4/4
K:G
V:1 treble nm="Grand Piano"
V:3 treble 
V:5 treble 
V:2 bass 
V:4 bass 
V:1
 z4 z2[Q:1/4=106] D2 | z2 [B,DF]4[K:bass] z2 | z2 [B,DE]4[K:bass] z2 | %3
 [B,E]2 [B,D]2 [B,EG]2 [CFA]2 | [DGB]6 [DBd]2 | c3 B [DA]2 [DFd]2 | B3 A [DG]2 [DGB]2 | %7
 [A,DA]2 [A,DA]2 [^CGA]2 [CGB]2 | A2- [CEA-]2 [CDA]2 D2 | [B,DG]2 [B,DF]2 [B,DE]2 [B,DG]2 | %10
 [CD]2 z2[K:bass] z4 | [B,DG]2 [B,EG]2 [EA]2 [EG_B]2 |[M:3/4] [^DFB]6 |[M:1/4] [^DB]2 | %14
[M:4/4] z2 z B c2 B2 | [CB]2 [CA]2 [CE]2 [CG]2 | [DB]3 [GB] [Fc]2 [CDF]2 |[M:3/4] [G,B,DG]6 | %18
[M:1/4] z2 |[M:4/4] [DGd]2 d>c [DGB]2 z G | [B,FB]2 B>A [B,EG]2 z G | [EGc]2 c2 [CEG]2 [^DA]2 | %22
 [DGB]6 z2 | [DFA]2 [DAd]2 [DGB]2 GG | [DFA]2 [DAd]2 [DGB]2 GG | [A,DA]2 AB [A,^CA]2 AG | %26
 [A,DF]2 [A,^CG]2 [=CDA]2 Bc | [DGd]2 [DGd]2 [DGB]2 [DG]2 | [EGe]6 z2 | [GB]2 [GB]2 [DGA]2 [CFA]2 | %30
[M:3/4] [B,DG]6 |] %31
V:2
 z8 | [G,,D,]2 [D,,D,]2 z2 [D,,D,]2 | [G,,D,]2 [D,,D,]2 G,,2 D,,2 | %3
 [G,,D,]2 [D,,D,]2 [G,,D,]2 [D,,D,]2 | G,,2 B,,D, G,2 [G,,G,]2 | %5
 [D,,D,]2 [E,,E,]2 [F,,F,]2 [D,,D,]2 | [G,,G,]2 [C,C]2 [B,,B,]2 [G,,G,]2 | %7
 [F,,F,]2 [F,,F,]2 [E,,E,]2 [A,,,A,,]2 | [D,,D,]2 [E,,E,]2 [F,,F,]2 [D,,D,]2 | %9
 [G,,D,]2 [D,,D,]2 [G,,D,]2 [D,,D,]2 | [A,,D,]2 z E F,,2 D,,2 | [G,,D,]2 [E,,E,]2 [C,C]2 C,2 | %12
[M:3/4] B,,2 ^D,F, B,2 |[M:1/4] [B,,A,]2 |[M:4/4] [E,^G,]2 z D [E,G,D]2 [E,G,D]2 | %15
 [A,,E,]2 [A,,E,]2 [A,,A,]2 [^D,A,]2 | [D,G,]3 [D,B,] [D,A,]2 D,2 |[M:3/4] G,,6 |[M:1/4] D2 | %19
[M:4/4] [B,,B,]2 [A,,A,]2 [G,,G,]2 z2 | [^D,,^D,]2 [B,,,B,,]2 [E,,E,]2 z2 | %21
 [C,,C,]2 [EG]2 [C,,C,]2 C2 | G,,A,,B,,D, G,2[K:treble] BB | [D,,D,]2 [F,,F,]2 [G,,G,]2 z2 | %24
 [D,,D,]2 [F,,F,]2 [G,,G,]2 z2 | [F,,F,]2 z2 [E,,E,]2 [^C,,^C,]2 | %26
 [D,,D,]2 [E,,E,]2 [F,,F,]2 [C,C]2 | [B,,B,]2 [B,,B,]2 [G,,G,]2 [B,,B,]2 | %28
 [C,C]>B,, C,D, C,2 [A,,A,][A,,A,] | [D,D]2 [D,D]2 [D,,D,]2 [D,,D,]2 |[M:3/4] [G,,D,]6 |] %31
V:3
 x8 | [B,DG]2 z2[K:bass] [G,,D,]2 [B,DE]2 | [B,DF]2 z2[K:bass] D,2 [D,B,D]2 | x8 | x8 | %5
 [DF]2 [DG]2 z4 | [DG]2 [DF]2 z4 | x8 | [CF]2 z2 z4 | x8 | F2- [D,CDF]2[K:bass] [D,CD]2 [D,CD]2 | %11
 x8 |[M:3/4] x6 |[M:1/4] x2 |[M:4/4] [DB]4 z4 | x8 | x8 |[M:3/4] x6 |[M:1/4] x2 | %19
[M:4/4] z2 [DF]2 z4 | z2 [B,^D]2 z4 | x8 | x8 | x8 | x8 | z4 z2 [A,E]2 | z4 z2 [DF]2 | x8 | %28
 z z/ B,/ CD C2 [EGd][EGc] | x8 |[M:3/4] x6 |] %31
V:4
 x8 | x8 | x8 | x8 | x8 | x8 | x8 | x8 | x8 | x8 | z2 D,,2 z4 | x8 |[M:3/4] x6 |[M:1/4] x2 | %14
[M:4/4] z2 E,2 z4 | x8 | x8 |[M:3/4] x6 |[M:1/4] x2 |[M:4/4] x8 | x8 | x8 | x6[K:treble] x2 | x8 | %24
 x8 | x8 | x8 | x8 | x8 | x8 |[M:3/4] x6 |] %31
V:5
 x8 | x4[K:bass] x4 | x4[K:bass] x4 | x8 | x8 | x8 | x8 | x8 | x8 | x8 | x4[K:bass] x4 | x8 | %12
[M:3/4] x6 |[M:1/4] x2 |[M:4/4] z2 ^G,2 z4 | x8 | x8 |[M:3/4] x6 |[M:1/4] x2 |[M:4/4] x8 | x8 | %21
 x8 | x8 | x8 | x8 | x8 | x8 | x8 | x8 | x8 |[M:3/4] x6 |] %31

